images/star-icon.svg

<svg width="18" height="17" viewBox="0 0 18 17" fill="none" xmlns="http://www.w3.org/2000/svg">
<path d="M15.5075 7.26946L11.5609 6.92824L11.5608 6.92822C11.3386 6.90864 11.126 6.82876 10.9458 6.69721C10.7657 6.56566 10.6249 6.38743 10.5387 6.18174L8.99961 2.51389L7.45989 6.18174C7.37362 6.38743 7.23284 6.56566 7.05271 6.69721C6.87259 6.82876 6.65997 6.90864 6.43778 6.92822L6.43762 6.92824L2.48619 7.26993L5.48776 9.88699L15.5075 7.26946ZM15.5075 7.26946L12.5115 9.88418C12.3434 10.0304 12.2184 10.2196 12.1499 10.4315C12.0814 10.6434 12.0719 10.8699 12.1225 11.0867L15.5075 7.26946ZM15.8562 5.96751L15.8559 5.9675L11.7403 5.61268L10.1269 1.77612C10.0341 1.55366 9.87753 1.36364 9.67693 1.22998C9.47633 1.09632 9.24067 1.025 8.99963 1.025C8.75858 1.025 8.52292 1.09632 8.32232 1.22998C8.12173 1.36364 7.96516 1.55366 7.87234 1.77612L6.26382 5.61271L2.14352 5.96959L2.15189 6.06923L2.14326 5.96961L2.14345 5.96959C1.90309 5.9898 1.67405 6.08052 1.48505 6.23037C1.29602 6.38024 1.15545 6.58257 1.08096 6.81201C1.00647 7.04145 1.00138 7.28777 1.06633 7.52009C1.13124 7.75229 1.26322 7.96016 1.44575 8.11768C1.44584 8.11776 1.44594 8.11785 1.44603 8.11793L4.57222 10.8498L3.63513 14.9073C3.63512 14.9074 3.6351 14.9074 3.63509 14.9075C3.58041 15.142 3.59604 15.3874 3.68003 15.613C3.76405 15.8387 3.91274 16.0347 4.10752 16.1764C4.30229 16.318 4.53451 16.3991 4.77513 16.4095C5.01575 16.42 5.2541 16.3592 5.46038 16.2349L5.46071 16.2347L8.99476 14.0865L12.5365 16.2347L12.5368 16.2349C12.743 16.3592 12.9814 16.42 13.222 16.4095C13.4626 16.3991 13.6948 16.318 13.8896 16.1764C14.0844 16.0347 14.2331 15.8387 14.3171 15.613C14.4011 15.3873 14.4167 15.1418 14.362 14.9073L13.4256 10.8456L16.5512 8.11781C16.5513 8.11778 16.5513 8.11774 16.5514 8.11771C16.7339 7.95963 16.8657 7.75111 16.9302 7.51834C16.9946 7.28559 16.9888 7.03899 16.9134 6.80953C16.8392 6.58097 16.6995 6.37928 16.5115 6.22957C16.3235 6.07982 16.0956 5.98868 15.8562 5.96751ZM6.429 6.82861C6.63305 6.81062 6.82831 6.73727 6.99373 6.61646C7.15915 6.49565 7.28845 6.33196 7.36767 6.14306L6.429 6.82861ZM12.1226 11.087L13.0219 14.9788L9.63383 12.9223C9.44296 12.806 9.2238 12.7445 9.00033 12.7445C8.77686 12.7445 8.55769 12.806 8.36683 12.9223L4.9834 14.9789L5.87669 11.0898C5.87671 11.0897 5.87672 11.0897 5.87674 11.0896C5.92733 10.8727 5.91787 10.6462 5.84936 10.4343C5.78084 10.2224 5.65585 10.0332 5.48784 9.88706L12.1226 11.087Z" fill="#02F7EA" stroke="#02F7EA" stroke-width="0.2"/>
</svg>

<svg width="18" height="17" fill="none" xmlns="http://www.w3.org/2000/svg"><path d="M15.508 7.27l-3.947-.342h0a1.225 1.225 0 01-1.022-.746l-1.54-3.668-1.54 3.668a1.225 1.225 0 01-1.021.746h0l-3.952.342 3.002 2.617 10.02-2.618zm0 0l-2.996 2.614a1.225 1.225 0 00-.39 1.203l3.386-3.818zm.348-1.302h0l-4.116-.355-1.613-3.837a1.221 1.221 0 00-2.255 0L6.264 5.613l-4.12.357.008.1-.009-.1h0a1.225 1.225 0 00-.697 2.148s0 0 0 0l3.126 2.732-.937 4.057s0 0 0 0a1.225 1.225 0 001.825 1.328h0l3.535-2.149 3.542 2.149h0a1.224 1.224 0 001.825-1.328l-.936-4.061 3.125-2.728s0 0 0 0a1.226 1.226 0 00-.695-2.15zm-9.427.86a1.125 1.125 0 00.939-.685l-.939.686zm5.694 4.259l.899 3.892-3.388-2.057a1.217 1.217 0 00-1.267 0L4.983 14.98l.894-3.89s0 0 0 0a1.225 1.225 0 00-.39-1.202l6.636 1.2z" fill="#02F7EA" stroke="#02F7EA" stroke-width=".2"/></svg>
